!!!OTL: Zhijian qingsong bujian hua
!!!ARE: Asia, China,ÿGansu, Jiuquan
!! I, 135
!!!SCT: C1419
!!!YEM: Copyright 1995, estate of Helmut Schaffrath.
**kern
*ICvox
*Ivox
*M2/4
*k[f#]
*G:
{4ddd
8.bb
16aa
=1
8bb
4bb
8r
=2
4aa
8.bb
16ddd
=3
8.bb
16aa
8.gg
16ee}
=4
{4.gg
8aa
=5
8bb
8bb
8.gg
16bb
=6
8aa
8gg
4ee
=7
4.dd
8r}
=8
{8dd
8b
4dd
=9
8ee
8gg
4r
=10
8gg
8gg
8.ee
16dd
=11
4.b
8r}
=12
{8aa
4aa
8ddd
=13
4bb
4gg
=14
8ee
8ee
4gg
=15
4.gg
8r}
==
!!!AGN: Wuge, Yangge
!!!ONB: ESAC (Essen Associative Code) Database: HUANG
!!!AMT: simple duple
!!!AIN: vox
!!!EED: Helmut Schaffrath
!!!EEV: 1.0
*-
